X:1
T:Sunshine Song
T:Sunshine Song
T:Frederick Augustus Fillmore
T:Arr. from Earl Alonzo Brinenstool, 1917
T:Public Domain Courtesy of the Cyber Hymnal™
T:Public Domain Courtesy of the Cyber Hymnal™
C:Frederick Augustus Fillmore
Z:Public Domain
Z:Courtesy of the Cyber Hymnal™
%%score ( 1 2 ) ( 3 4 )
L:1/8
Q:1/4=105
M:6/8
K:Ab
V:1 treble 
V:2 treble 
V:3 bass 
V:4 bass 
V:1
 [Ec] | [CE]2 [CE] [=B,=D]2 [CE] | [=B,F]3 [CE]2 [Ec] | [CE]2 [CF] [CG]2 [CA] | [DG]3- [DG]2 [Ed] | %5
w: 1.~In|spite of gloom and|dark- ness, Keep|fac- ing t’ward the|light, * Keep|
w: 2.~In|spite of all your|sor- row, O|let your spir- it|fly, * To|
w: 3.~We’ll|ga- ther with our|loved ones Up-|on the sil- v’ry|strand, * Our|
 [DF]2 [D=E] [DF]2 [DG] | [DF]3 [CE]2 [CE] | [CA]2 [EA] [=Dc]2 [DB] | B3- [_DB]2 [=Dc] | %9
w: look- ing for the|sun- shine, Tho’|hid- den from your|sight; For at|
w: where the sun is|sh- ining A-|bove the cloud- ed|sky; A bet-|
w: doubts and fears will|van- ish, And|we will un- der-|stand, The beau-|
 [CE]2 [CE] [=B,=D]2 [CE] | [=B,F]3 [CE]2 [CE] | [CA]2 [CA] [Ec]2 [Ee] | [DF]3- [DF]2 [DF] | %13
w: * the dawn of|morn- ing, So|beau- ti- ful and|bright, * The|
w: * ter day is|com- ing, A|dawn of glo- ry|bright, * The|
w: * ty and the|bright- ness Of|Heav- en’s sun- kissed|shore, * The|
 [FA]2 [DF] [FA]2 [FA] | (e2 c) !fermata![=DA]2 [DB] | [Ec]2 [CE] [DB]2 [DE] | A3- [CA]2 z || %17
w: bless- èd sun- shine|com- * ing Will|drive a- way the|night. *|
w: sun- shine of God’s|pre- * sence Will|drive a- way the|night. Sun-|
w: sun- shine of God’s|pre- * sence Is|there for- ev- er-|more. *|
[M:3/4]"^Refrain" [Ec]2 E4 | [Ec]2 E4 | =DE FG AF | G6 [Dd]2 F4 | [DG]2 F4 | EF GA B=B | %23
w: ||||||
w: * shine,|sun- shine,|Soft and gen- tle from a-|bove, Sun- shine,|sun- shine,|Tok- en of a Fa- ther’s|
w: ||||||
 c6 [Ee]2 c4 | [EB]2 A4 | AG A=A Bc | F6 [Dd]2 F4 | [DG]2 !fermata![DF]4 | %28
w: |||||
w: love; Sun- shine,|sun- shine,|Light- ing all the drear- y|way, Sun- shine,|sun- shine,|
w: |||||
 [B,E][B,F] [EG][Ed] [Ec][DB] | [CA]4- [CA] |] %30
w: ||
w: Turn- ing dark- ness in- to|day. *|
w: ||
V:2
 x | x6 | x6 | x6 | x6 | x6 | x6 | x6 | E2 =D x3 | x6 | x6 | x6 | x6 | x6 | E3 x3 | x6 | C2 D x3 || %17
[M:3/4] x2 (C2 C2) | x2 (C2 C2) | C2 C2 C2 | (D2 D2 D2) (D2 D2) x2 | x2 (D2 D2) | D2 D2 D2 | %23
 (C2 E2 E2) (A2 A2) x2 | x2 (E2 E2) | E2 E2 E2 | (D2 F2 E2) (D2 D2) x2 | x6 | x6 | x5 |] %30
V:3
 [A,,A,] | [A,,A,]2 [A,,A,] [A,,F,]2 [A,,E,] | [A,,=D,]3 [A,,E,]2 [A,,A,] | %3
w: ~|~ ~ ~ ~|~ ~ ~|
 [A,,A,]2 [A,,A,] [A,,E,]2 [A,,E,] | [B,,E,]3- [B,,E,]2 [E,G,] | [E,G,]2 [E,G,] [E,G,]2 [E,B,] | %6
w: ~ ~ ~ ~|~ * ~|~ ~ ~ ~|
 [A,,A,]3 [A,,A,]2 [A,,A,] | [A,,A,]2 [C,A,] [B,,A,]2 [B,,A,] | (G,2 A, [E,G,]2) [E,G,] | %9
w: ~ ~ ~|~ ~ ~ ~|~ * * ~|
 [A,,A,]2 [A,,A,] [A,,F,]2 [A,,E,] | [A,,=D,]3 [A,,E,]2 [A,,A,] | [A,,A,]2 A, A,2 [C,A,] | %12
w: ~ ~ ~ ~|~ ~ ~|~ ~ ~ ~|
 [D,A,]3- [D,A,]2 [D,A,] | [D,D]2 [D,A,] [D,B,]2 [=D,=B,] | (C2 A,) !fermata![E,B,]2 [E,B,] | %15
w: ~ * ~|~ ~ ~ ~|~ * ~ ~|
 [E,A,]2 [E,A,] [E,G,]2 [E,G,] | (A,2 F, [A,,E,]2) z || [A,,A,]2 [A,,A,]2 [A,,A,]2 | %18
w: ~ ~ ~ ~|~ * *|* Sun- shine,|
 [A,,A,]2 [A,,A,]2 [A,,A,]2 | [A,,A,]2 [A,,A,]2 [A,,A,]2 | %20
w: bright sun- shine,|in gen- tle|
 [B,,E,]2 [B,,E,]2 [B,,E,]2 [E,G,]2 [E,G,]2 [E,G,]2 | [E,B,]2 [E,B,]2 [E,B,]2 | %22
w: rays from a- bove, Sun- shine,|the tok- en|
 [E,G,B,]2 [E,B,]2 [E,G,]2 | [A,,A,]2 [A,,A,]2 [A,,A,]2 [A,C]2 [A,E]2 [A,E]2 | %24
w: of our Heav’n-|ly Fa- ther’s love; Sun- shine,|
 [A,D]2 [A,C]2 [A,C]2 | [D,A,]2 [C,A,]2 [C,A,]2 | %26
w: glad sun- shine,|to light all|
 [D,A,]2 [D,A,]2 [C,=A,]2 [B,,B,]2 [B,,B,]2 [B,,B,]2 | [E,B,]2 [E,B,]4 | %28
w: the drear- y way, Sun- shine,|blest sun-|
 [E,G,][E,A,][E,B,] [E,G,][E,F,][E,G,] | [A,,A,]4- [A,,A,] |] %30
w: shine, * * * * *||
V:4
 x | x6 | x6 | x6 | x6 | x6 | x6 | x6 | E,3- x3 | x6 | x6 | x2 A, A,2 x | x6 | x6 | E,3 x3 | x6 | %16
 A,,3- x3 || x6 | x6 | x6 | x12 | x6 | x6 | x12 | x6 | x6 | x12 | x6 | x6 | x5 |] %30

